resources/svg/heart-pulse-line.svg

<svg fill="currentColor" viewBox="0 0 24 24" xmlns="http://www.w3.org/2000/svg"><path d="M16.5 3C19.5376 3 22 5.5 22 9C22 16 14.5 20 12 21.5C10.0226 20.3135 4.91699 17.563 2.86894 13.001L1 13V11L2.21045 11.0009C2.07425 10.3633 2 9.69651 2 9C2 5.5 4.5 3 7.5 3C9.35997 3 11 4 12 5C13 4 14.64 3 16.5 3ZM16.5 5C15.4241 5 14.2593 5.56911 13.4142 6.41421L12 7.82843L10.5858 6.41421C9.74068 5.56911 8.5759 5 7.5 5C5.55906 5 4 6.6565 4 9C4 9.68542 4.09035 10.3516 4.26658 11.0004L6.43381 11L8.5 7.55635L11.5 12.5563L12.4338 11H17V13H13.5662L11.5 16.4437L8.5 11.4437L7.56619 13L5.10789 13.0006C5.89727 14.3737 7.09304 15.6681 8.64514 16.9029C9.39001 17.4955 10.1845 18.0485 11.0661 18.6038C11.3646 18.7919 11.6611 18.9729 12 19.1752C12.3389 18.9729 12.6354 18.7919 12.9339 18.6038C13.8155 18.0485 14.61 17.4955 15.3549 16.9029C18.3337 14.533 20 11.9435 20 9C20 6.64076 18.463 5 16.5 5Z"/></svg>

<svg xmlns="http://www.w3.org/2000/svg" viewBox="0 0 24 24" fill="currentColor">
    <g>
        <path fill="none" d="M0 0H24V24H0z"/>
        <path d="M16.5 3C19.538 3 22 5.5 22 9c0 7-7.5 11-10 12.5-1.977-1.186-7.083-3.937-9.131-8.499L1 13v-2h1.21C2.074 10.364 2 9.698 2 9c0-3.5 2.5-6 5.5-6C9.36 3 11 4 12 5c1-1 2.64-2 4.5-2zm0 2c-1.076 0-2.24.57-3.086 1.414L12 7.828l-1.414-1.414C9.74 5.57 8.576 5 7.5 5 5.56 5 4 6.656 4 9c0 .685.09 1.352.267 2h2.167L8.5 7.556l3 5L12.434 11H17v2h-3.434L11.5 16.444l-3-5L7.566 13H5.108c.79 1.374 1.985 2.668 3.537 3.903.745.592 1.54 1.145 2.421 1.7.299.189.595.37.934.572.339-.202.635-.383.934-.571.881-.556 1.676-1.109 2.42-1.701C18.335 14.533 20 11.943 20 9c0-2.36-1.537-4-3.5-4z"/>
    </g>
</svg>
